src/assets/images/github-rocket.svg

<svg height="1357" viewBox="0 0 562 1357" width="562" xmlns="http://www.w3.org/2000/svg" xmlns:xlink="http://www.w3.org/1999/xlink"><defs><circle id="a" cx="15.416673" cy="16.076453" r="15.242121"/><mask id="b" fill="#fff"><use fill="#fff" fill-rule="evenodd" xlink:href="#a"/></mask></defs><g fill="none" fill-rule="evenodd" transform="translate(2 -59)"><g transform="translate(0 171)"><path d="m558.070312 1242.01953s-372.515624-219.96484-517.648437-670.628905c-145.132813-450.664063 155.785156-562.80859375 155.785156-562.80859375" stroke="#2e6974" stroke-width="5"/><path d="m129.676094 32.8319256c17.358649-5.3561249 68.711099-36.43345143 71.139764-14.0020208 2.428664 22.4314307-15.699996.6123014-71.031371 19.3156992-4.525178 1.4470851-4.772504-1.559016-.108393-5.3136784z" fill="#2e6974" transform="matrix(.95630476 -.2923717 .2923717 .95630476 -.057233 48.925474)"/></g><g transform="matrix(.42261826 .90630779 -.90630779 .42261826 425.125188 .031574)"><path d="m67.5325224 46.9750317c5.8894191 12.2158439 22.409387 73.7191023 22.409387 138.0417783s-15.3118568 90.162603-15.3118568 90.162603h-17.019034s-14.781538-26.527399-14.781538-90.162603 12.651473-109.7780721 21.6922862-138.0417783c0-11.9445765 3.0107556-11.7565501 3.0107556 0z" fill="#31c0a1"/><path d="m65.8670967 0s1.6654257 35.2184816 1.6654257 46.9750317c2.25346 4.6741311 6.0632817 16.5641679 9.9085311 33.0670386-8.0648235 2.0407967-14.1671879 1.8839504-22.3252183.1639285 3.1443232-12.9587156 6.4660281-24.0401383 9.4059316-33.2309671 0-11.9445765 1.3453299-46.9750317 1.3453299-46.9750317z" fill="#51e0c1"/><path d="m34.7102958 182.025293-3.0746508 51.86542 34.75005-2.725595s-.3597273 6.253928-.3597273 13.899464c-44.1611381-7.645536-49.6695238 46.313642-59.9338735 74.487572l-6.0920942 1.668951 31.917678-135.798054z" fill="#24b394"/><path d="m34.7102958 182.025293-34.7102958 139.195812 28.705467-139.010265z" fill="#47d6b7"/><path d="m88.7603343 216.623483s-1.4513505 25.523834-8.1309092 44.567337c-14.1333489 0-20.8124507 0-28.1591287 0-7.8611337-19.043503-8.3159878-44.567337-8.3159878-44.567337z" fill="#008064"/><path d="m55.8956883 193.513086c0 .618886.5096708 1.110355 1.1103543 1.110355.618886 0 1.1103543-.491469 1.1103543-1.110355v-10.775897c0-.618886-.4732658-1.110354-1.1103543-1.110354h-.0364051c-.3276455 0-.655291.07281-1.0921517.200227l-1.9294681.618886c-.4550633.127418-.7463037.491469-.7463037.964734 0 .509671.4550632.946532.9829366.946532.1092151 0 .2730379-.018203.4004556-.054608l1.3105821-.400455zm5.1331133-.327645v.182025c0 .709899.5460758 1.255975 1.2923795 1.255975.7281012 0 1.2741771-.546076 1.2741771-1.255975v-.182025c0-.709899-.5460759-1.255975-1.2741771-1.255975-.7463037 0-1.2923795.546076-1.2923795 1.255975zm6.0614422.327645c0 .618886.5096708 1.110355 1.1103543 1.110355.618886 0 1.1103543-.491469 1.1103543-1.110355v-10.775897c0-.618886-.4732658-1.110354-1.1103543-1.110354h-.0364051c-.3276455 0-.655291.07281-1.0921517.200227l-1.9294681.618886c-.4550632.127418-.7463037.491469-.7463037.964734 0 .509671.4550632.946532.9829366.946532.1092151 0 .2730379-.018203.4004556-.054608l1.3105821-.400455zm9.7019481 1.201367c-2.784987 0-4.8600753-1.456202-4.8600753-3.658708v-.036405c0-1.529013.8555189-2.493747 2.2935187-3.09443-1.0739492-.564279-1.856658-1.419798-1.856658-2.839595v-.036405c0-1.947671 1.8748605-3.440278 4.4232146-3.440278s4.4232146 1.474405 4.4232146 3.440278v.036405c0 1.419797-.7827087 2.275316-1.856658 2.839595 1.4015948.637088 2.2935187 1.547215 2.2935187 3.058025v.036405c0 2.275316-2.0750883 3.695113-4.8600753 3.695113zm0-7.535847c1.3105821 0 2.2753162-.782709 2.2753162-1.87486v-.036406c0-.982936-.9101265-1.783847-2.2753162-1.783847s-2.2753161.800911-2.2753161 1.765645v.036405c0 1.110354.964734 1.893063 2.2753161 1.893063zm0 5.660987c1.6746327 0 2.6757718-.855519 2.6757718-1.911266v-.036405c0-1.164962-1.1649618-1.929468-2.6757718-1.929468-1.5108099 0-2.6575693.764506-2.6575693 1.929468v.036405c0 1.037544.9829366 1.911266 2.6575693 1.911266z" fill="#363d4f" transform="matrix(0 -1 1 0 -120.734552 255.588534)"/><g transform="matrix(0 -1 1 0 50.311924 144.761392)"><use fill="#51e0c1" xlink:href="#a"/><path d="m9.76385253 36.129065c.84059147.15471 1.14691747-.3640845 1.14691747-.8096495 0-.399152-.0144396-1.4553063-.0226908-2.8569797-4.67327611 1.0148982-5.65929507-2.2525789-5.65929507-2.2525789-.76426784-1.9410959-1.86580368-2.4578276-1.86580368-2.4578276-1.52544147-1.0417146.11551687-1.0210865.11551687-1.0210865 1.68633997.118611 2.57334448 1.7317215 2.57334448 1.7317215 1.49862506 2.5671561 3.93273046 1.8255791 4.8898702 1.395485.1526473-1.0850334.5868669-1.825579 1.0664682-2.245359-3.73057592-.4239057-7.65299238-1.8658037-7.65299238-8.3038062 0-1.8338303.65493938-3.3345181 1.7296588-4.508252-.1732753-.424937-.74982823-2.1339678.16502409-4.446368 0 0 1.40992461-.45175342 4.61964329 1.722439 1.3397893-.373367 2.7775618-.5590191 4.2060516-.5662389 1.4274584.0072198 2.8641994.1928719 4.2060516.5662389 3.2076558-2.17419242 4.6155177-1.722439 4.6155177-1.722439.9169151 2.3124002.3403621 4.021431.1681183 4.446368 1.0767822 1.1737339 1.7265645 2.6744217 1.7265645 4.508252 0 6.4545049-3.9286048 7.8747435-7.6705262 8.2903979.602338.5187945 1.1396977 1.5440067 1.1396977 3.1107042 0 2.2463905-.020628 4.0585614-.020628 4.6093293 0 .4496906.3032318.9726107 1.1551686.8086181-4.2457916.9610625-5.7897031.9935814-10.63167727.0010314z" fill="#005442" mask="url(#b)"/></g><path d="m67.5325224 46.9750317c5.8894191 12.2158439 22.409387 73.7191023 22.409387 138.0417783 0 38.244302-5.4129392 62.884456-9.8020802 76.577831-14.4442577 0-17.0374489 0-27.2711434-.556485 18.5366118-4.181521 15.6569148-41.952717 15.6569148-79.696713 0-40.314336.5975842-78.638001-1.7267465-99.8383843-1.5462425 0-3.7852226.2053379-11.612765-1.2610438 21.3012882-2.1315404 13.5809136-27.3528948 11.612765-33.2669832z" fill="#000" fill-opacity=".107478"/><path d="m115.480933 182.025293-3.07465 51.86542s0 0 14.981943-1.175098c1.316192 0 4.501739.630291 5.186111 5.46377.684373 4.833478-.473152 7.147317-2.554319 7.147317-29.066407 7.072111-34.3683684 50.101337-43.1572862 74.225452l-6.0920942 1.668951 30.8469414-134.727317z" fill="#31c0a1" transform="matrix(-1 0 0 1 213.542028 0)"/><path d="m132.77139 182.025293-34.7102958 139.195812 28.7054668-139.010265z" fill="#039273" transform="matrix(-1 0 0 1 230.832484 0)"/></g></g></svg>

<?xml version="1.0" encoding="UTF-8"?>
<svg width="562px" height="1357px" viewBox="0 0 562 1357" version="1.1" xmlns="http://www.w3.org/2000/svg" xmlns:xlink="http://www.w3.org/1999/xlink">
    <!-- Generator: Sketch 43.2 (39069) - http://www.bohemiancoding.com/sketch -->
    <title>Rocket</title>
    <desc>Created with Sketch.</desc>
    <defs>
        <circle id="path-1" cx="15.4166734" cy="16.0764527" r="15.2421208"></circle>
    </defs>
    <g id="Illu" stroke="none" stroke-width="1" fill="none" fill-rule="evenodd">
        <g id="BG" transform="translate(-48.000000, -190.000000)">
            <g id="Top">
                <g id="Rocket" transform="translate(50.000000, 131.000000)">
                    <g id="Path" transform="translate(0.000000, 171.000000)">
                        <path d="M558.070312,1242.01953 C558.070312,1242.01953 185.554688,1022.05469 40.421875,571.390625 C-104.710938,120.726562 196.207031,8.58203125 196.207031,8.58203125" id="Path-2" stroke="#2E6974" stroke-width="5"></path>
                        <path d="M129.676094,32.8319256 C147.034743,27.4758007 198.387193,-3.60152583 200.815858,18.8299048 C203.244522,41.2613355 185.115862,19.4422062 129.784487,38.145604 C125.259309,39.5926891 125.011983,36.586588 129.676094,32.8319256 Z" id="Warp" fill="#2E6974" transform="translate(163.655377, 24.654215) rotate(-17.000000) translate(-163.655377, -24.654215) "></path>
                    </g>
                    <g transform="translate(307.313749, 128.342582) rotate(65.000000) translate(-307.313749, -128.342582) translate(240.813749, -32.657418)">
                        <path d="M67.5325224,46.9750317 C73.4219415,59.1908756 89.9419094,120.694134 89.9419094,185.01681 C89.9419094,249.339486 74.6300526,275.179413 74.6300526,275.179413 L57.6110186,275.179413 C57.6110186,275.179413 42.8294806,248.652014 42.8294806,185.01681 C42.8294806,121.381606 55.4809536,75.2387379 64.5217668,46.9750317 C64.5217668,35.0304552 67.5325224,35.2184816 67.5325224,46.9750317 Z" id="Base" fill="#31C0A1"></path>
                        <path d="M65.8670967,0 C65.8670967,0 67.5325224,35.2184816 67.5325224,46.9750317 C69.7859824,51.6491628 73.5958041,63.5391996 77.4410535,80.0420703 C69.37623,82.082867 63.2738656,81.9260207 55.1158352,80.2059988 C58.2601584,67.2472832 61.5818633,56.1658605 64.5217668,46.9750317 C64.5217668,35.0304552 65.8670967,0 65.8670967,0 Z" id="Path-24" fill="#51E0C1"></path>
                        <path d="M34.7102958,182.025293 L31.635645,233.890713 L66.385695,231.165118 C66.385695,231.165118 66.0259677,237.419046 66.0259677,245.064582 C21.8648296,237.419046 16.3564439,291.378224 6.0920942,319.552154 L0,321.221105 L31.917678,185.423051 L34.7102958,182.025293 Z" id="Path-25" fill="#24B394"></path>
                        <polygon id="Path-25" fill="#47D6B7" points="34.7102958 182.025293 0 321.221105 28.705467 182.21084"></polygon>
                        <path d="M88.7603343,216.623483 C88.7603343,216.623483 87.3089838,242.147317 80.6294251,261.19082 C66.4960762,261.19082 59.8169744,261.19082 52.4702964,261.19082 C44.6091627,242.147317 44.1543086,216.623483 44.1543086,216.623483 L88.7603343,216.623483 Z" id="Path-24" fill="#008064"></path>
                        <path d="M55.8956883,193.513086 C55.8956883,194.131972 56.4053591,194.623441 57.0060426,194.623441 C57.6249286,194.623441 58.1163969,194.131972 58.1163969,193.513086 L58.1163969,182.737189 C58.1163969,182.118303 57.6431311,181.626835 57.0060426,181.626835 L56.9696375,181.626835 C56.641992,181.626835 56.3143465,181.699645 55.8774858,181.827062 L53.9480177,182.445948 C53.4929544,182.573366 53.201714,182.937417 53.201714,183.410682 C53.201714,183.920353 53.6567772,184.357214 54.1846506,184.357214 C54.2938657,184.357214 54.4576885,184.339011 54.5851062,184.302606 L55.8956883,183.902151 L55.8956883,193.513086 Z M61.0288016,193.185441 L61.0288016,193.367466 C61.0288016,194.077365 61.5748774,194.623441 62.3211811,194.623441 C63.0492823,194.623441 63.5953582,194.077365 63.5953582,193.367466 L63.5953582,193.185441 C63.5953582,192.475542 63.0492823,191.929466 62.3211811,191.929466 C61.5748774,191.929466 61.0288016,192.475542 61.0288016,193.185441 Z M67.0902438,193.513086 C67.0902438,194.131972 67.5999146,194.623441 68.2005981,194.623441 C68.8194841,194.623441 69.3109524,194.131972 69.3109524,193.513086 L69.3109524,182.737189 C69.3109524,182.118303 68.8376866,181.626835 68.2005981,181.626835 L68.164193,181.626835 C67.8365475,181.626835 67.508902,181.699645 67.0720413,181.827062 L65.1425732,182.445948 C64.68751,182.573366 64.3962695,182.937417 64.3962695,183.410682 C64.3962695,183.920353 64.8513327,184.357214 65.3792061,184.357214 C65.4884212,184.357214 65.652244,184.339011 65.7796617,184.302606 L67.0902438,183.902151 L67.0902438,193.513086 Z M76.7921919,194.714453 C74.0072049,194.714453 71.9321166,193.258251 71.9321166,191.055745 L71.9321166,191.01934 C71.9321166,189.490327 72.7876355,188.525593 74.2256353,187.92491 C73.1516861,187.360631 72.3689773,186.505112 72.3689773,185.085315 L72.3689773,185.04891 C72.3689773,183.101239 74.2438378,181.608632 76.7921919,181.608632 C79.340546,181.608632 81.2154065,183.083037 81.2154065,185.04891 L81.2154065,185.085315 C81.2154065,186.505112 80.4326978,187.360631 79.3587485,187.92491 C80.7603433,188.561998 81.6522672,189.472125 81.6522672,190.982935 L81.6522672,191.01934 C81.6522672,193.294656 79.5771789,194.714453 76.7921919,194.714453 Z M76.7921919,187.178606 C78.102774,187.178606 79.0675081,186.395897 79.0675081,185.303746 L79.0675081,185.26734 C79.0675081,184.284404 78.1573816,183.483493 76.7921919,183.483493 C75.4270022,183.483493 74.5168758,184.284404 74.5168758,185.249138 L74.5168758,185.285543 C74.5168758,186.395897 75.4816098,187.178606 76.7921919,187.178606 Z M76.7921919,192.839593 C78.4668246,192.839593 79.4679637,191.984074 79.4679637,190.928327 L79.4679637,190.891922 C79.4679637,189.72696 78.3030019,188.962454 76.7921919,188.962454 C75.281382,188.962454 74.1346226,189.72696 74.1346226,190.891922 L74.1346226,190.928327 C74.1346226,191.965871 75.1175592,192.839593 76.7921919,192.839593 Z" id="1.18" fill="#363D4F" transform="translate(67.426991, 188.161543) rotate(-90.000000) translate(-67.426991, -188.161543) "></path>
                        <g id="Window" transform="translate(66.311924, 129.261392) rotate(-90.000000) translate(-66.311924, -129.261392) translate(50.811924, 113.261392)">
                            <mask id="mask-2" fill="white">
                                <use xlink:href="#path-1"></use>
                            </mask>
                            <use fill="#51E0C1" xlink:href="#path-1"></use>
                            <path d="M9.76385253,36.129065 C10.604444,36.283775 10.91077,35.7649805 10.91077,35.3194155 C10.91077,34.9202635 10.8963304,33.8641092 10.8880792,32.4624358 C6.21480309,33.477334 5.22878413,30.2098569 5.22878413,30.2098569 C4.46451629,28.268761 3.36298045,27.7520293 3.36298045,27.7520293 C1.83753898,26.7103147 3.47849732,26.7309428 3.47849732,26.7309428 C5.16483729,26.8495538 6.0518418,28.4626643 6.0518418,28.4626643 C7.55046686,31.0298204 9.98457226,30.2882434 10.941712,29.8581493 C11.0943593,28.7731159 11.5285789,28.0325703 12.0081802,27.6127903 C8.27760428,27.1888846 4.35518782,25.7469866 4.35518782,19.3089841 C4.35518782,17.4751538 5.0101272,15.974466 6.08484662,14.8007321 C5.91157132,14.3757951 5.33501839,12.6667643 6.24987071,10.3543641 C6.24987071,10.3543641 7.65979532,9.90261068 10.869514,12.0768031 C12.2093033,11.7034361 13.6470758,11.517784 15.0755656,11.5105642 C16.503024,11.517784 17.939765,11.7034361 19.2816172,12.0768031 C22.489273,9.90261068 23.8971349,10.3543641 23.8971349,10.3543641 C24.81405,12.6667643 24.237497,14.3757951 24.0652532,14.8007321 C25.1420354,15.974466 25.7918177,17.4751538 25.7918177,19.3089841 C25.7918177,25.763489 21.8632129,27.1837276 18.1212915,27.599382 C18.7236295,28.1181765 19.2609892,29.1433887 19.2609892,30.7100862 C19.2609892,32.9564767 19.2403612,34.7686476 19.2403612,35.3194155 C19.2403612,35.7691061 19.543593,36.2920262 20.3955298,36.1280336 C16.1497382,37.0890961 14.6058267,37.121615 9.76385253,36.129065 Z" id="Fill-50" fill="#005442" mask="url(#mask-2)"></path>
                        </g>
                        <path d="M67.5325224,46.9750317 C73.4219415,59.1908756 89.9419094,120.694134 89.9419094,185.01681 C89.9419094,223.261112 84.5289702,247.901266 80.1398292,261.594641 C65.6955715,261.594641 63.1023803,261.594641 52.8686858,261.038156 C71.4052976,256.856635 68.5256006,219.085439 68.5256006,181.341443 C68.5256006,141.027107 69.1231848,102.703442 66.7988541,81.5030587 C65.2526116,81.5030587 63.0136315,81.7083966 55.1860891,80.2420149 C76.4873773,78.1104745 68.7670027,52.8891201 66.7988541,46.9750317 C66.7988541,46.9750317 67.5325224,46.9750317 67.5325224,46.9750317 Z" id="Shadow" fill-opacity="0.107478487" fill="#000000"></path>
                        <path d="M115.480933,182.025293 L112.406283,233.890713 C112.406283,233.890713 112.406283,233.890713 127.388226,232.715615 C128.704418,232.715615 131.889965,233.345906 132.574337,238.179385 C133.25871,243.012863 132.101185,245.326702 130.020018,245.326702 C100.953611,252.398813 95.6516496,295.428039 86.8627318,319.552154 L80.7706376,321.221105 L111.617579,186.493788 L115.480933,182.025293 Z" id="Path-25" fill="#31C0A1" transform="translate(106.771014, 251.623199) scale(-1, 1) translate(-106.771014, -251.623199) "></path>
                        <polygon id="Path-25" fill="#039273" transform="translate(115.416242, 251.623199) scale(-1, 1) translate(-115.416242, -251.623199) " points="132.77139 182.025293 98.0610942 321.221105 126.766561 182.21084"></polygon>
                    </g>
                </g>
            </g>
        </g>
    </g>
</svg>
